X: 20203
T: Joe Bane's
R: reel
M: 4/4
K: Gmajor
B2 Bc B>A (3AAA|B>AB>c d>ge>d|(3BcB Bc B>AA>B|(3ded c>A A>G:|
e2 a2 g2- g>e|(3ddd B>c d2 (3Bcd|e2 a2 (3ggg g>e|d2 c>A A>GG>d|
e2 a2 g2 g>e|d2 e>f (3ggg f>g|a>b (3agf g2- g>e|(3ddd c>A A>G||

